svg/24/eye-contact.svg

<svg width="24" height="24" viewBox="0 0 24 24" fill="currentColor" xmlns="http://www.w3.org/2000/svg"><path d="M2.75 2C2.33579 2 2 2.33579 2 2.75V5.25C2 5.66421 2.33579 6 2.75 6C3.16421 6 3.5 5.66421 3.5 5.25V3.5H5.25C5.66421 3.5 6 3.16421 6 2.75C6 2.33579 5.66421 2 5.25 2H2.75Z"/><path d="M2 18.75V21.25C2 21.4489 2.07902 21.6397 2.21967 21.7803C2.36032 21.921 2.55109 22 2.75 22H5.25C5.66421 22 6 21.6642 6 21.25C6 20.8358 5.66421 20.5 5.25 20.5H3.5L3.5 18.75C3.5 18.3358 3.16421 18 2.75 18C2.33579 18 2 18.3358 2 18.75Z"/><path d="M18 21.25C18 21.6642 18.3358 22 18.75 22H21.25C21.4489 22 21.6397 21.921 21.7803 21.7803C21.921 21.6397 22 21.4489 22 21.25V18.75C22 18.3358 21.6642 18 21.25 18C20.8358 18 20.5 18.3358 20.5 18.75V20.5H18.75C18.3358 20.5 18 20.8358 18 21.25Z"/><path d="M22 5.25V2.75C22 2.33579 21.6642 2 21.25 2H18.75C18.3358 2 18 2.33579 18 2.75C18 3.16421 18.3358 3.5 18.75 3.5L20.5 3.5V5.25C20.5 5.66421 20.8358 6 21.25 6C21.6642 6 22 5.66421 22 5.25Z"/><path fill-rule="evenodd" clip-rule="evenodd" d="M15 12C15 13.6569 13.6569 15 12 15C10.3431 15 9 13.6569 9 12C9 10.3431 10.3431 9 12 9C13.6569 9 15 10.3431 15 12ZM13.5 12C13.5 12.8284 12.8284 13.5 12 13.5C11.1716 13.5 10.5 12.8284 10.5 12C10.5 11.1716 11.1716 10.5 12 10.5C12.8284 10.5 13.5 11.1716 13.5 12Z"/><path fill-rule="evenodd" clip-rule="evenodd" d="M3.71065 12.825C3.38096 12.3244 3.38096 11.6756 3.71065 11.175C4.78731 9.54015 7.62284 6 11.9999 6C16.3769 6 19.2124 9.54014 20.2891 11.175C20.6188 11.6756 20.6188 12.3244 20.2891 12.825C19.2124 14.4599 16.3769 18 11.9999 18C7.62284 18 4.78731 14.4599 3.71065 12.825ZM19.0364 12C17.993 13.5843 15.5494 16.5 11.9999 16.5C8.45034 16.5 6.00675 13.5843 4.96338 12C6.00675 10.4157 8.45034 7.5 11.9999 7.5C15.5494 7.5 17.993 10.4157 19.0364 12Z"/></svg>

<svg xmlns="http://www.w3.org/2000/svg" width="24" height="24" fill="currentColor" viewBox="0 0 24 24">
  <path d="M2.75 2a.75.75 0 0 0-.75.75v2.5a.75.75 0 0 0 1.5 0V3.5h1.75a.75.75 0 0 0 0-1.5h-2.5ZM2 18.75v2.5a.75.75 0 0 0 .75.75h2.5a.75.75 0 0 0 0-1.5H3.5v-1.75a.75.75 0 0 0-1.5 0Zm16 2.5c0 .414.336.75.75.75h2.5a.75.75 0 0 0 .75-.75v-2.5a.75.75 0 0 0-1.5 0v1.75h-1.75a.75.75 0 0 0-.75.75Zm4-16v-2.5a.75.75 0 0 0-.75-.75h-2.5a.75.75 0 0 0 0 1.5h1.75v1.75a.75.75 0 0 0 1.5 0Z"/>
  <path fill-rule="evenodd" d="M15 12a3 3 0 1 1-6 0 3 3 0 0 1 6 0Zm-1.5 0a1.5 1.5 0 1 1-3 0 1.5 1.5 0 0 1 3 0Z" clip-rule="evenodd"/>
  <path fill-rule="evenodd" d="M3.71 12.825a1.5 1.5 0 0 1 0-1.65C4.788 9.54 7.624 6 12 6c4.377 0 7.212 3.54 8.29 5.175.329.5.329 1.15 0 1.65C19.211 14.46 16.376 18 12 18c-4.377 0-7.213-3.54-8.29-5.175ZM19.037 12c-1.043 1.584-3.487 4.5-7.036 4.5-3.55 0-5.993-2.916-7.037-4.5C6.007 10.416 8.45 7.5 12 7.5s5.993 2.916 7.036 4.5Z" clip-rule="evenodd"/>
</svg>
